packages/ui-icons/svg/Line/remove-bookmark.svg

<svg viewBox="0 0 1920 1920" version="1.1" xmlns="http://www.w3.org/2000/svg">
    <path d="M1415.37671,2.27373675e-13 L505.585796,2.27373675e-13 C411.536161,2.27373675e-13 335,76.5361606 335,170.585796 L335,1920 L960.481253,1544.71125 L1585.96251,1920 L1585.96251,170.585796 C1585.96251,76.5361606 1509.42635,2.27373675e-13 1415.37671,2.27373675e-13 L1415.37671,2.27373675e-13 Z M1472.23864,1719.16366 L960.481253,1412.10922 L448.723864,1719.16366 L448.723864,170.585796 C448.723864,139.19801 474.19801,113.723864 505.585796,113.723864 L1415.37671,113.723864 C1446.7645,113.723864 1472.23864,139.19801 1472.23864,170.585796 L1472.23864,1719.16366 Z M1241.95919,538.16407 L1161.44269,457.761298 L960.492626,658.82509 L759.428834,457.761298 L679.026062,538.16407 L880.089854,739.227862 L679.026062,940.17793 L759.428834,1020.5807 L960.492626,819.630634 L1161.44269,1020.5807 L1241.95919,940.17793 L1040.8954,739.227862 L1241.95919,538.16407 Z" stroke="none" stroke-width="1" fill-rule="evenodd"/>
</svg>

<svg viewBox="0 0 1920 1920" version="1.1" xmlns="http://www.w3.org/2000/svg">
    <path d="M1415.377 0H505.586C411.536 0 335 76.536 335 170.586V1920l625.481-375.289L1585.963 1920V170.586C1585.963 76.536 1509.426 0 1415.377 0zm56.862 1719.164L960.48 1412.109l-511.757 307.055V170.586c0-31.388 25.474-56.862 56.862-56.862h909.79c31.389 0 56.863 25.474 56.863 56.862v1548.578zm-230.28-1181l-80.516-80.403-200.95 201.064-201.064-201.064-80.403 80.403L880.09 739.228l-201.064 200.95 80.403 80.403 201.064-200.95 200.95 200.95 80.516-80.403-201.064-200.95 201.064-201.064z" stroke="none" stroke-width="1" fill-rule="evenodd"/>
</svg>
